X: 1
T: Varis Hasapikos II  [Am]
T: Slow Hasapikos
R: hasapikos
O: Greece
Z: John Chambers <jc@trillian.mit.edu> http://trillian.mit.edu/~jc/music/
M: 4/4
L: 1/8
K: Am
e/ d>e | "Dm"(3[ff]f[ff] (3[ff]f[ff] (3[ff]f[ff] e>d | "Am"e3 d c>e d>e | "Dm"f2 a2 g2 f2 | "Am"e4 z>e d>e |
| "Dm"(3[ff]f[ff] (3[ff]f[ff] (3[ff]f[ff] e>d | "Am"e3 d c>B c>d | "E7"(3efe (3ded (3cdc (3 BcB | "Am"Az "E7"Ez "Am"Az :|
|: E>A | "Am"c4- c>B c>d | "G"B4- B>A B>c | "F"A2 A2 G2 F2 | "E7"E4- E2 :|
[| A>c | "Am"e4- e>e d>e | "Dm"f2- f>e d>c d>e | f2 a2 g2 f2 | "Am"e6 A>c |
|  "Am"e4- e>e d>e | "Dm"f2- f>e d>c d>f | "E7"(3efe (3ded (3cdc (3 BcB | "Am"Az "E7"Ez "Am"Az |]


%%sep 1 1 500

%%sep 1 1 500

